X:1
T:Distress, LM
T:Distress, LM
T:William Walker, Southern Harmony, 1835
T:Public Domain Courtesy of the Cyber Hymnal™
C:William Walker, Southern Harmony, 1835
Z:Public Domain
Z:Courtesy of the Cyber Hymnal™
%%score ( 1 2 ) ( 3 4 )
L:1/8
M:none
K:F
V:1 treble 
V:2 treble 
V:3 bass 
V:4 bass 
V:1
 D4 | F2 G2 A4 | [=B,G]4 [CF]2 (DC) | D8 | z2 [CA]2 [Gc]2 x2 | [Ad]4 [Bd]4 | [Ac]2 A2 z2 x6 | %7
 [EG]4 F4 | [FA]2 [Ec]2 [Dd]4 | [Ac]4 [FA]2 [DF]2 | [Ec]4 D4 | F2 G2 A4 | [=B,G]4 [CF]2 (DC) | %13
 D8- | [A,D]4 |] %15
V:2
 D4- | D4 (C2 D2) | x6 _B,2 | (B,2 A,G, A,4) | (G4 D2) x2 | x8 | x2 F4 G4 ED | x4 F4- | x8 | x8 | %10
 x4 D4- | D4 (C2 D2) | x6 _B,2 | B,2 A,G, A,4- | x4 |] %15
V:3
 D2 C2 | B,4 F,4 | G,4 A,2 _B,2 | D,6 C,2 | B,,4 F,2 E,2 | D,2 F,2 G,4 | A,3 B, C4- x4 | %7
 C2 B,4 A,2 | D2 C4 B,2 | F,2 G,2 A,2 B,2 | C4 D2 C2 | B,4 F,4 | G,4 A,2 _B,2 | D,8- | D,4 |] %15
V:4
 (D2 C2) | B,4 F,4 | G,4 A,2 _B,2 | D,6 C,2 | B,,4 F,2 E,2 | D,2 F,2 G,4 | A,3 B, C4- x4 | %7
 C2 B,4 A,2 | D2 C4 B,2 | F,2 G,2 A,2 B,2 | C4 D2 C2 | B,4 F,4 | G,4 A,2 _B,2 | D,8 | D,4 |] %15

